src/normal/grid.svg

<!-- Generated by IcoMoon.io -->
<svg version="1.1" xmlns="http://www.w3.org/2000/svg" width="24" height="24" viewBox="0 0 24 24">
<title>grid</title>
<path d="M1 2v21h20.98v-21h-20.98zM19.982 9h-4.996v-5h4.996v5zM19.982 15h-4.996v-5h4.996v5zM19.982 21h-4.996v-5h4.996v5zM2.998 16h4.996v5h-4.996v-5zM2.998 10h4.996v5h-4.996v-5zM2.998 4h4.996v5h-4.996v-5zM13.988 9h-4.995v-5h4.996v5zM13.988 15h-4.995v-5h4.996v5zM8.993 16h4.996v5h-4.996v-5z"></path>
</svg>

<svg xmlns="http://www.w3.org/2000/svg" width="24" height="24"><path d="M1 2v21h20.98V2H1zm18.982 7h-4.996V4h4.996v5zm0 6h-4.996v-5h4.996v5zm0 6h-4.996v-5h4.996v5zM2.998 16h4.996v5H2.998v-5zm0-6h4.996v5H2.998v-5zm0-6h4.996v5H2.998V4zm10.99 5H8.993V4h4.996v5zm0 6H8.993v-5h4.996v5zm-4.995 1h4.996v5H8.993v-5z"/></svg>
